svg/other/firecracker_fill.svg

<?xml version="1.0" encoding="UTF-8"?>
<svg width="24px" height="24px" viewBox="0 0 24 24" version="1.1" xmlns="http://www.w3.org/2000/svg" xmlns:xlink="http://www.w3.org/1999/xlink">
    <title>firecracker_fill</title>
    <g id="Icon" stroke="none" stroke-width="1" fill="none" fill-rule="evenodd">
        <g id="Business" transform="translate(-289.000000, -528.000000)">
            <g id="firecracker_fill" transform="translate(289.000000, 528.000000)">
                <path d="M24,0 L24,24 L0,24 L0,0 L24,0 Z M12.5935,23.2578 L12.5819,23.2595 L12.5109,23.295 L12.4919,23.2987 L12.4767,23.295 L12.4057,23.2595 C12.3958,23.2564 12.387,23.259 12.3821,23.2649 L12.378,23.2758 L12.3609,23.7031 L12.3659,23.7235 L12.3769,23.7357 L12.4805,23.8097 L12.4953,23.8136 L12.5071,23.8097 L12.6107,23.7357 L12.6233,23.7197 L12.6267,23.7031 L12.6096,23.2758 C12.6076,23.2657 12.601,23.2593 12.5935,23.2578 Z M12.8584,23.1453 L12.8445,23.1473 L12.6598,23.2397 L12.6499,23.2499 L12.6472,23.2611 L12.6651,23.6906 L12.6699,23.7034 L12.6784,23.7105 L12.8793,23.8032 C12.8914,23.8069 12.9022,23.803 12.9078,23.7952 L12.9118,23.7812 L12.8777,23.1665 C12.8753,23.1546 12.8674,23.147 12.8584,23.1453 Z M12.143,23.1473 C12.1332,23.1424 12.1222,23.1453 12.1156,23.1526 L12.1099,23.1665 L12.0758,23.7812 C12.0751,23.7927 12.0828,23.8019 12.0926,23.8046 L12.1083,23.8032 L12.3092,23.7105 L12.3186,23.7024 L12.3225,23.6906 L12.3404,23.2611 L12.3372,23.2485 L12.3278,23.2397 L12.143,23.1473 Z" id="MingCute" fill-rule="nonzero"></path>
                <path d="M17.1284,2.5097 C17.3992,2.02833 18.0089,1.85759 18.4902,2.12834 C18.9716,2.39909 19.1423,3.0088 18.8716,3.49017 L18.7301426,3.73262736 C18.4745222,4.14932806 18.1078833,4.61147667 17.4543,4.85541 C16.7565,5.11584 15.8935,5.06336 14.8249,4.87338 C14.3489,4.78876 14.0496,4.84418 13.8624,4.92247 C13.7568,4.96665 13.6624,5.02832 13.577,5.10948 C14.1676,5.19457 14.712,5.32763 15.1796,5.50294 C15.6071,5.66327 16.0225,5.8783 16.3491,6.16781 C16.64187,6.427433 16.934883,6.81617 16.9905579,7.32564479 L17,7.49993 L17,19.4999 C17,20.0957 16.6744,20.5436 16.3491,20.8321 C16.0225,21.1216 15.6071,21.3366 15.1796,21.4969 C14.3171,21.8203 13.1927,21.9999 12,21.9999 C10.8073,21.9999 9.6829,21.8203 8.82045,21.4969 C8.39292,21.3366 7.97747,21.1216 7.65093,20.8321 C7.358097,20.57245 7.0651101,20.183686 7.00944105,19.6741915 L7,19.4999 L7,7.49993 C7,6.90415 7.32556,6.45628 7.65093,6.16781 C7.97747,5.8783 8.39292,5.66327 8.82045,5.50294 C9.51975,5.24071 10.3913,5.07303 11.3318,5.01897 C11.4325,4.74747 11.5618,4.47999 11.7264,4.22906 C12.0356,3.75787 12.4788,3.33334 13.0906,3.07739 C13.7003,2.82235 14.401,2.76666 15.175,2.90426 C15.31416,2.929 15.4416471,2.94950836 15.5584536,2.96634172 L15.8778232,3.00637353 C15.9260419,3.01139356 15.9718385,3.015634 16.015337,3.01916444 L16.2497435,3.03238377 C16.2845458,3.03335254 16.3172982,3.03375048 16.3481245,3.03364716 L16.510963,3.02756889 C16.5345815,3.02573889 16.5565221,3.0235468 16.5769088,3.0210622 L16.6815744,3.00320121 L16.6815744,3.00320121 L16.7743949,2.97405707 L16.7743949,2.97405707 L16.8188243,2.94883709 C16.877044,2.9061646 16.96264,2.804379 17.1284,2.5097 Z M11.0013,7.05222 C10.4122,7.11565 9.90538,7.2321 9.5227,7.3756 L9.3877714,7.42947174 C9.2653362,7.4843043 9.2653362,7.51556421 9.3877714,7.57039273 L9.5227,7.62426 L9.5227,7.62426 C10.04947,7.821792 10.811383,7.9680591 11.6994535,7.9953372 L12,7.99993 C11.4653,7.99993 11.0285,7.5802 11.0013,7.05222 Z M12.9987,7.05222 C12.9734429,7.54248714 12.5950102,7.93941628 12.1129665,7.99361907 L12,7.99993 C13.0164,7.99993 13.892,7.84374 14.4773,7.62426 L14.6122107,7.57039273 C14.7346298,7.51556421 14.7346298,7.4843043 14.6122107,7.42947174 L14.4773,7.3756 L14.4773,7.3756 C14.0946,7.2321 13.5878,7.11565 12.9987,7.05222 Z" id="形状" fill="#09244B"></path>
            </g>
        </g>
    </g>
</svg>

<svg xmlns="http://www.w3.org/2000/svg" width="24" height="24"><g fill="none" fill-rule="evenodd"><path d="M24 0v24H0V0h24ZM12.594 23.258l-.012.002-.071.035-.02.004-.014-.004-.071-.036c-.01-.003-.019 0-.024.006l-.004.01-.017.428.005.02.01.013.104.074.015.004.012-.004.104-.074.012-.016.004-.017-.017-.427c-.002-.01-.009-.017-.016-.018Zm.264-.113-.014.002-.184.093-.01.01-.003.011.018.43.005.012.008.008.201.092c.012.004.023 0 .029-.008l.004-.014-.034-.614c-.003-.012-.01-.02-.02-.022Zm-.715.002a.023.023 0 0 0-.027.006l-.006.014-.034.614c0 .012.007.02.017.024l.015-.002.201-.093.01-.008.003-.011.018-.43-.003-.012-.01-.01-.184-.092Z"/><path fill="#09244B" d="M17.128 2.51a1 1 0 0 1 1.744.98l-.142.243c-.255.416-.622.878-1.276 1.122-.698.26-1.56.208-2.63.018-.475-.084-.774-.029-.962.05a.932.932 0 0 0-.285.186c.59.086 1.135.219 1.603.394.427.16.843.375 1.17.665.292.26.585.648.64 1.158L17 7.5v12c0 .596-.326 1.044-.65 1.332-.328.29-.743.505-1.17.665-.863.323-1.987.503-3.18.503s-2.317-.18-3.18-.503c-.427-.16-.843-.375-1.17-.665-.292-.26-.585-.648-.64-1.158L7 19.5v-12c0-.596.326-1.044.65-1.332.327-.29.743-.505 1.17-.665.7-.262 1.571-.43 2.512-.484.1-.272.23-.539.394-.79.31-.471.753-.896 1.365-1.152.61-.255 1.31-.31 2.084-.173.14.025.267.046.383.062l.32.04c.048.005.094.01.137.013l.235.013.098.002.163-.006a1.51 1.51 0 0 0 .066-.007l.105-.018.092-.029.045-.025c.058-.043.144-.145.31-.44Zm-6.127 4.542c-.589.064-1.096.18-1.478.324l-.135.053c-.123.055-.123.087 0 .141l.135.054c.526.198 1.288.344 2.176.371L12 8a1 1 0 0 1-.999-.948Zm1.998 0a1 1 0 0 1-.886.942L12 8c1.016 0 1.892-.156 2.477-.376l.135-.054c.123-.054.123-.086 0-.14l-.135-.054A6.214 6.214 0 0 0 13 7.052Z"/></g></svg>
